X: 18675
T: I'll Tell Me Ma
R: polka
M: 2/4
K: Gmajor
DG B3/2B/|cB B3/2B/|BA A3/2B/|1 AG G3/2E/:|2 AG G3/2B/||
dd dB|cc cA|BB/B/ BG|AF ED|
dd dB|cc cd/c/|BG/G/ AF|AG G2||

